icons/evolvere-blue-folders-flat-vivid-dark-fallback/apps/64/octopi-notifier.svg

<?xml version="1.0" encoding="UTF-8" standalone="no"?>
<!-- Created with Inkscape (http://www.inkscape.org/) -->

<svg
   xmlns:dc="http://purl.org/dc/elements/1.1/"
   xmlns:cc="http://creativecommons.org/ns#"
   xmlns:rdf="http://www.w3.org/1999/02/22-rdf-syntax-ns#"
   xmlns:svg="http://www.w3.org/2000/svg"
   xmlns="http://www.w3.org/2000/svg"
   xmlns:sodipodi="http://sodipodi.sourceforge.net/DTD/sodipodi-0.dtd"
   xmlns:inkscape="http://www.inkscape.org/namespaces/inkscape"
   width="64"
   height="64"
   id="svg13094"
   version="1.1"
   inkscape:version="0.48.4 r9939"
   sodipodi:docname="octopi-notifier.svg">
  <sodipodi:namedview
     id="base"
     pagecolor="#ffffff"
     bordercolor="#666666"
     borderopacity="1.0"
     inkscape:pageopacity="0"
     inkscape:pageshadow="2"
     inkscape:zoom="11.313709"
     inkscape:cx="25.386508"
     inkscape:cy="32.362744"
     inkscape:document-units="px"
     inkscape:current-layer="svg13094"
     showgrid="true"
     inkscape:snap-bbox="true"
     inkscape:bbox-paths="true"
     inkscape:bbox-nodes="true"
     inkscape:snap-bbox-edge-midpoints="true"
     inkscape:snap-bbox-midpoints="true"
     inkscape:object-paths="true"
     inkscape:snap-intersection-paths="true"
     inkscape:object-nodes="true"
     inkscape:snap-smooth-nodes="true"
     inkscape:snap-midpoints="true"
     inkscape:snap-object-midpoints="true"
     inkscape:snap-center="true"
     showguides="false"
     inkscape:guide-bbox="true"
     inkscape:window-width="1920"
     inkscape:window-height="1022"
     inkscape:window-x="-5"
     inkscape:window-y="23"
     inkscape:window-maximized="1"
     inkscape:snap-global="true"
     fit-margin-top="0"
     fit-margin-left="0"
     fit-margin-right="0"
     fit-margin-bottom="0"
     showborder="true"
     inkscape:showpageshadow="false"
     inkscape:snap-page="true">
    <inkscape:grid
       type="xygrid"
       id="grid3075"
       empspacing="5"
       visible="true"
       enabled="true"
       snapvisiblegridlinesonly="true"
       originx="1.6362304e-08px"
       originy="18px" />
    <sodipodi:guide
       orientation="0,1"
       position="-11,30"
       id="guide9148" />
    <sodipodi:guide
       orientation="1,0"
       position="32,70"
       id="guide9150" />
  </sodipodi:namedview>
  <defs
     id="defs13096" />
  <metadata
     id="metadata13099">
    <rdf:RDF>
      <cc:Work
         rdf:about="">
        <dc:format>image/svg+xml</dc:format>
        <dc:type
           rdf:resource="http://purl.org/dc/dcmitype/StillImage" />
        <dc:title />
      </cc:Work>
    </rdf:RDF>
  </metadata>
  <path
     id="path6538"
     d="m 0,4 0,30 0,28 2,2 30,0 30,0 2,-2 L 64,34 64,4 32,4 0,4 z"
     style="color:#000000;fill:#2d9e6c;fill-opacity:1;fill-rule:nonzero;stroke:none;stroke-width:2.28571415000000000;marker:none;visibility:visible;display:inline;overflow:visible;enable-background:accumulate"
     inkscape:connector-curvature="0" />
  <path
     style="color:#000000;fill:#61e1a2;fill-opacity:1;fill-rule:nonzero;stroke:none;marker:none;visibility:visible;display:inline;overflow:visible;enable-background:accumulate"
     d="M 2 0 L 0 1 L 0 4 L 19.5625 4 L 39.125 4 L 64 4 L 64 1 L 62 0 L 39.125 0 L 19.5625 0 L 2 0 z "
     id="path6688" />
  <path
     d="M 64,6 62,4 64,3 z"
     id="path3028"
     style="fill:#1f0700;fill-opacity:0.13759861"
     inkscape:connector-curvature="0" />
  <g
     id="g3043"
     inkscape:export-filename="folder.png"
     inkscape:export-xdpi="90"
     inkscape:export-ydpi="90"
     transform="translate(-0.62500009,0.082283)" />
  <g
     id="scalable"
     transform="matrix(1.0385892,0,0,1.0385892,1214.7222,1878.8121)"
     inkscape:label="#g3701"
     style="fill:#ffffff" />
  <path
     style="fill:#78e5b0;fill-opacity:1;fill-rule:nonzero"
     d="M 0,3 0,6 2,4 z"
     id="path4298"
     inkscape:connector-curvature="0"
     sodipodi:nodetypes="cccc" />
  <path
     inkscape:connector-curvature="0"
     style="font-size:medium;font-style:normal;font-variant:normal;font-weight:normal;font-stretch:normal;text-indent:0;text-align:start;text-decoration:none;line-height:normal;letter-spacing:normal;word-spacing:normal;text-transform:none;direction:ltr;block-progression:tb;writing-mode:lr-tb;text-anchor:start;baseline-shift:baseline;color:#000000;fill:#d9d9d9;fill-opacity:1;fill-rule:nonzero;stroke:none;stroke-width:4;marker:none;visibility:visible;display:inline;overflow:visible;enable-background:accumulate;font-family:Sans;-inkscape-font-specification:Sans"
     d="m 27,22.15625 c -3.07734,0 -5.625,2.547661 -5.625,5.625 0,3.077339 2.547662,5.59375 5.625,5.59375 2.089973,0 3.846283,-1.222447 4.8125,-2.9375 0.966217,1.715053 2.722527,2.9375 4.8125,2.9375 3.077338,0 5.625,-2.51641 5.625,-5.59375 0,-3.07734 -2.547661,-5.625 -5.625,-5.625 -2.08063,0 -3.842828,1.203725 -4.8125,2.90625 C 30.842829,23.359975 29.08063,22.15625 27,22.15625 z"
     id="path3837-3" />
  <path
     id="path3837"
     d="m 31.811664,14.515656 c -7.320381,0 -13.254575,5.934194 -13.254575,13.254576 0,3.39317 1.291718,6.466545 3.389075,8.8114 l -3.991556,15.287827 4.594036,1.280393 3.614884,-13.405196 c 1.012169,0.476201 2.101936,0.838894 3.238214,1.05434 l 0,14.685348 4.819846,0 0,-14.685348 c 1.186645,-0.226532 2.337144,-0.617903 3.389074,-1.12977 l 3.765504,13.480626 4.669226,-1.280393 -4.367985,-15.287827 c 2.097114,-2.344855 3.388833,-5.41823 3.388833,-8.8114 0,-7.320382 -5.934193,-13.254576 -13.254576,-13.254576 z m -4.819845,9.639692 c 1.99638,0 3.614884,1.618504 3.614884,3.614884 0,1.996381 -1.618504,3.614883 -3.614884,3.614883 -1.996381,0 -3.614884,-1.618502 -3.614884,-3.614883 0,-1.99638 1.618503,-3.614884 3.614884,-3.614884 z m 9.639691,0 c 1.99638,0 3.614885,1.618504 3.614885,3.614884 0,1.996381 -1.618505,3.614883 -3.614885,3.614883 -1.99638,0 -3.614885,-1.618502 -3.614885,-3.614883 0,-1.99638 1.618505,-3.614884 3.614885,-3.614884 z m -8.434729,2.409922 c -0.665379,0 -1.204962,0.539582 -1.204962,1.204962 0,0.665379 0.539583,1.20496 1.204962,1.20496 0.665379,0 1.204961,-0.539581 1.204961,-1.20496 0,-0.66538 -0.539582,-1.204962 -1.204961,-1.204962 z m 9.639691,0 c -0.66538,0 -1.204962,0.539582 -1.204962,1.204962 0,0.665379 0.539582,1.20496 1.204962,1.20496 0.665379,0 1.20496,-0.539581 1.20496,-1.20496 0,-0.66538 -0.539581,-1.204962 -1.20496,-1.204962 z"
     style="font-size:medium;font-style:normal;font-variant:normal;font-weight:normal;font-stretch:normal;text-indent:0;text-align:start;text-decoration:none;line-height:normal;letter-spacing:normal;word-spacing:normal;text-transform:none;direction:ltr;block-progression:tb;writing-mode:lr-tb;text-anchor:start;baseline-shift:baseline;color:#000000;fill:#e63d75;fill-opacity:1;fill-rule:nonzero;stroke:none;stroke-width:2.28571415000000000;marker:none;visibility:visible;display:inline;overflow:visible;enable-background:accumulate;font-family:Sans;-inkscape-font-specification:Sans"
     inkscape:connector-curvature="0"
     inkscape:transform-center-x="-2.5982576"
     inkscape:transform-center-y="-20.484344" />
</svg>

<svg xmlns="http://www.w3.org/2000/svg" viewBox="0 0 64 64"><g color="#000"><path d="m0 4v30 28l2 2h30 30l2-2v-28-30h-32-32" fill="#2d9e6c"/><path d="m2 0l-2 1v3h19.563 19.563 24.875v-3l-2-1h-22.875-19.563-17.563" fill="#61e1a2"/></g><path d="m64 6l-2-2 2-1z" fill="#1f0700" fill-opacity=".138"/><path d="m0 3v3l2-2z" fill="#78e5b0"/><g color="#000"><path d="m27 22.16c-3.077 0-5.625 2.548-5.625 5.625 0 3.077 2.548 5.594 5.625 5.594 2.09 0 3.846-1.222 4.813-2.938.966 1.715 2.723 2.938 4.813 2.938 3.077 0 5.625-2.516 5.625-5.594 0-3.077-2.548-5.625-5.625-5.625-2.081 0-3.843 1.204-4.813 2.906-.97-1.703-2.732-2.906-4.813-2.906" fill="#d9d9d9"/><path d="m31.812 14.516c-7.32 0-13.255 5.934-13.255 13.255 0 3.393 1.292 6.467 3.389 8.811l-3.992 15.288 4.594 1.28 3.615-13.405c1.012.476 2.102.839 3.238 1.054v14.685h4.82v-14.685c1.187-.227 2.337-.618 3.389-1.13l3.766 13.481 4.669-1.28-4.368-15.288c2.097-2.345 3.389-5.418 3.389-8.811 0-7.32-5.934-13.255-13.255-13.255m-4.82 9.64c1.996 0 3.615 1.619 3.615 3.615 0 1.996-1.619 3.615-3.615 3.615-1.996 0-3.615-1.619-3.615-3.615 0-1.996 1.619-3.615 3.615-3.615m9.64 0c1.996 0 3.615 1.619 3.615 3.615 0 1.996-1.619 3.615-3.615 3.615-1.996 0-3.615-1.619-3.615-3.615 0-1.996 1.619-3.615 3.615-3.615m-8.435 2.41c-.665 0-1.205.54-1.205 1.205 0 .665.54 1.205 1.205 1.205.665 0 1.205-.54 1.205-1.205 0-.665-.54-1.205-1.205-1.205m9.64 0c-.665 0-1.205.54-1.205 1.205 0 .665.54 1.205 1.205 1.205.665 0 1.205-.54 1.205-1.205 0-.665-.54-1.205-1.205-1.205" fill="#e63d75"/></g></svg>
